src/assets/buttons/gitter.svg

<svg height="55" viewBox="0 0 55 55" width="55" xmlns="http://www.w3.org/2000/svg"><g fill="none"><rect fill="#141414" height="55" rx="2" width="55"/><path d="m15.2048295 9.40451172h3.4733686v22.92312408h-3.4733686zm21.1172497 5.55711258h3.4730913v17.3660115h-3.4730913zm-14.0318549 0h3.4730914v30.633864h-3.4730914zm6.94646 0h3.4733687v30.633864h-3.4733687z" fill="#fff"/></g></svg>

<svg xmlns="http://www.w3.org/2000/svg" width="55" height="55" viewBox="0 0 55 55">
  <g fill="none">
    <rect width="55" height="55" fill="#141414" rx="2"/>
    <path fill="#FFF" d="M15.2048295,9.40451172 L18.6781981,9.40451172 L18.6781981,32.3276358 L15.2048295,32.3276358 L15.2048295,9.40451172 Z M36.3220792,14.9616243 L39.7951705,14.9616243 L39.7951705,32.3276358 L36.3220792,32.3276358 L36.3220792,14.9616243 Z M22.2902243,14.9616243 L25.7633157,14.9616243 L25.7633157,45.5954883 L22.2902243,45.5954883 L22.2902243,14.9616243 Z M29.2366843,14.9616243 L32.710053,14.9616243 L32.710053,45.5954883 L29.2366843,45.5954883 L29.2366843,14.9616243 Z"/>
  </g>
</svg>
